resources/svg/mv-fill.svg

<svg fill="currentColor" viewBox="0 0 24 24" xmlns="http://www.w3.org/2000/svg"><path d="M2 3.9934C2 3.44476 2.45531 3 2.9918 3H21.0082C21.556 3 22 3.44495 22 3.9934V20.0066C22 20.5552 21.5447 21 21.0082 21H2.9918C2.44405 21 2 20.5551 2 20.0066V3.9934ZM12 12.1707C11.6872 12.0602 11.3506 12 11 12C9.34315 12 8 13.3431 8 15C8 16.6569 9.34315 18 11 18C12.6569 18 14 16.6569 14 15V8H17V6H12V12.1707Z"/></svg>

<svg xmlns="http://www.w3.org/2000/svg" viewBox="0 0 24 24" fill="currentColor">
    <g>
        <path fill="none" d="M0 0h24v24H0z"/>
        <path d="M2 3.993A1 1 0 0 1 2.992 3h18.016c.548 0 .992.445.992.993v16.014a1 1 0 0 1-.992.993H2.992A.993.993 0 0 1 2 20.007V3.993zm10 8.178A3 3 0 1 0 14 15V7.999h3V6h-5v6.17z"/>
    </g>
</svg>
